usr/share/icons/biglinux-icons-material-dark/16/actions/kdenlive-ripple.svg

<svg version="1.1" viewBox="0 0 16 16" xmlns="http://www.w3.org/2000/svg">
    <defs>
        <style id="current-color-scheme" type="text/css">.ColorScheme-Text {
        color:#dedede;
      }</style>
    </defs>
    <path class="ColorScheme-Text" d="m5 2v1h1v4h-1v-2l-3 3 3 3v-2h1v4h-1v1h2v-12h-2zm4 0v12h2v-1h-1v-4h1v2l3-3-3-3v2h-1v-4h1v-1h-2z" style="fill:currentColor;fill-opacity:1;stroke:none"/>
</svg>

<svg xmlns="http://www.w3.org/2000/svg" viewBox="0 0 16 16">
<defs>
<style id="current-color-scheme" type="text/css">
.ColorScheme-Text{color:#dedede}
</style>
</defs>
<path d="M5 2v1h1v4H5V5L2 8l3 3V9h1v4H5v1h2V2zm4 0v12h2v-1h-1V9h1v2l3-3-3-3v2h-1V3h1V2z" class="ColorScheme-Text" style="fill:currentColor;fill-opacity:1;stroke:none"/>
</svg>
